X:8017
T:Hava Nagila
R:Klezmer
C:Trad.
N:Note E Phrygian Dominant key signature with just G# (Freygish)
O:Jewish
Z:Paul Hardy's Session Tunebook 2015 (see www.paulhardy.net). Creative Commons cc by-nc-sa licenced.
M:4/4
L:1/8
Q:1/4=180
K:EPhr ^G
"E" E2 z2 E4|E2 G2 F2 E2|G2 z2 G4|G2 B2 A2 G2|"Am" A2 z2 A4|A2 c2 B2 A2|"E" G4 FE F2|E8:|
|:"E" G2 G4 F2|E2 E2 E2 z2|"Dm" F2 F4 E2|D2 D2 D2 z2|D4 F3 E|D2 DD A4|"E" G4 FE F2|E8:|
"Am" A8|c8|A4 e4|c4 A4|AA A2 c3 B|A2 c2 B2 A2|AA A2 c3 B|A2 c2 B2 A2|"Dm" BB B2 d3 c|B2 d2 c2 B2|
"Dm"BB B2 d3 c|B2 d2 c2 B2|"E" BB B2 e4|e4 -e4|BB B2 E4|E4 -E2 E2|"Am"c4 B4|"E"A4 G4|"Am" A8|]

